!!!COM:	Bach, Johann Sebastian
!!!CDT:	1685/02/21/-1750/07/28/
!!!OTL@@DE:	Allein zu dir, Herr Jesu Christ
!!!SCT:	BWV 33/6
!!!PC#:	13
!!!AGN:	chorale
**kern	**kern	**kern	**kern
*ICvox	*ICvox	*ICvox	*ICvox
*Ibass	*Itenor	*Ialto	*Isoprn
*I"Bass	*I"Tenor	*I"Alto	*I"Soprano
*>[A,A,B]	*>[A,A,B]	*>[A,A,B]	*>[A,A,B]
*>norep[A,B]	*>norep[A,B]	*>norep[A,B]	*>norep[A,B]
*>A	*>A	*>A	*>A
*clefF4	*clefGv2	*clefG2	*clefG2
*k[]	*k[]	*k[]	*k[]
*a:	*a:	*a:	*a:
*M4/4	*M4/4	*M4/4	*M4/4
*met(c)	*met(c)	*met(c)	*met(c)
*MM100	*MM100	*MM100	*MM100
4A	8AL	4e	4cc
.	8BJ	.	.
=1	=1	=1	=1
4E	8cL	8eL	4g
.	8BJ	8dJ	.
4F	4A	8cL	8aL
.	.	8dJ	8bJ
8EL	4G	8eL	8ccL
8DJ	.	8fJ	8ddJ
4C	8GL	4g	4ee
.	8AJ	.	.
=2	=2	=2	=2
4G	8BL	4.g	4dd
.	16AL	.	.
.	16BJJ	.	.
4A	8cL	.	2cc
.	8dJ	8f#	.
4G	4e	4g	.
4G	4d	4g	4b
=3	=3	=3	=3
2C;	2e;	2g;	2cc;
4r	4ry	4ry	4r
4C	4c	4g	4ee
=4	=4	=4	=4
4G	4.B	8gL	4dd
.	.	8fJ	.
4A	.	4e	4cc
.	8A	.	.
4.E	8GL	[2e	8bL
.	8AJ	.	8aJ
.	4B	.	4g
8D	.	.	.
=5	=5	=5	=5
8CL	4c	8eL]	4a
8cJ	.	8f#J	.
8BL	8dL	8g#L	8bL
8AJ	8eJ	8aJ	8ccJ
4G#	8fnXL	4b	4dd
.	8eJ	.	.
4A	4e	4a	8ccL
.	.	.	8bJ
=6	=6	=6	=6
4D	8fL	4a	4cc
.	8dJ	.	.
4E	8BL	4g#	4b
.	16cL	.	.
.	16dJJ	.	.
4AA;	4c;	4e;	4a;
=:|!	=:|!	=:|!	=:|!
*>B	*>B	*>B	*>B
4A	4c	4a	4ee
=7	=7	=7	=7
8DL	4c	4a	8ffL
8EJ	.	.	8eeJ
4F	8BL	4a	4dd
.	8AJ	.	.
4E	4B	4g#	8eeL
.	.	.	8ddJ
8AL	8cL	4e	4cc
8GnXJ	8BJ	.	.
=8	=8	=8	=8
8FL	4A	4a	4dd
8EJ	.	.	.
8DL	4A	4g	4ee
8C#J	.	.	.
4D;	4d;	4f;	4a;
4G#	4B	4e	4ee
=9	=9	=9	=9
4A	4c	4a	8ffL
.	.	.	8eeJ
4B	4d	8aL	4dd
.	.	8gJ	.
4c	4c	4g	8eeL
.	.	.	8ddJ
4E	4c	4g	4cc
=10	=10	=10	=10
4F#	4c	4a	4dd
4G#	4B	4b	4ee
4A;	4c;	4e;	4a;
8EL	4e	4gnX	4cc
8F#J	.	.	.
=11	=11	=11	=11
4G	4d	8gL	4b
.	.	8f#J	.
8C#L	4e	4e	4a
8D#J	.	.	.
4E	4B	8eL	4g
.	.	8gJ	.
4AA	4c#X	8fL	4a
.	.	8eJ	.
=12	=12	=12	=12
8DnXL	4A	8dL	8fL
8FJ	.	8c#J	8eJ
8EL	4A	4d	4f
8DJ	.	.	.
4A;	4A;	4c#;	4e;
[4F	4A	4c	4a
=13	=13	=13	=13
4F]	8BL	4d	4g
.	8AJ	.	.
8EL	2G	8gL	2cc
8DJ	.	8fJ	.
8EL	.	4e	.
8FJ	.	.	.
4G	4G	4d	4b
=14	=14	=14	=14
4C;	4G;	4e;	4cc;
4c	4e	4e	4g
8cL	4d	4f#	4a
8dJ	.	.	.
8cL	4d	4g#	4b
8BJ	.	.	.
=15	=15	=15	=15
8AL	8eL	4a	8ccL
8B	8d	.	8ddJ
8A	8c	4e	4ee
8GnXJ	8BJ	.	.
4.F	8AL	[2a	4dd
.	8BJ	.	.
.	8cL	.	4cc
8E	16dL	.	.
.	16eJJ	.	.
=16	=16	=16	=16
4D	4f	4a]	4b
4E	8eL	4g#	4b
.	8dJ	.	.
4AA;	4c#;	4e;	4a;
==	==	==	==
*-	*-	*-	*-
!!!hum2abc: -Q ''
!!!title: @{PC#}. @{OTL@@DE}
!!!YOR1: 371 vierstimmige Choralges&auml;nge von Johann Sebastian Bach, 
!!!YOR2: 4th ed. by Alfred D&ouml;rffel (Leipzig: Breitkopf und H&auml;rtel, 
!!!YOR2: c.1875). 178 pp. Plate "V.A.10".  reprint: J.S. Bach, 371 Four-Part 
!!!YOR4: Chorales (New York: Associated Music Publishers, Inc., c.1940).
!!!SMS: B&H, 4th ed, Alfred D&ouml;rffel, c.1875, plate V.A.10
!!!EED:  Craig Stuart Sapp
!!!EEV:  2009/05/22
